X:501
T:Polska efter Nils Andersson
T:(SvL Jämtland 501)
R:Polska
S:Nils Andersson
O:Hammerdal, Jämtland
B:Svenska Låtar Jämtland
M:3/4
L:1/8
K:G
vdb bd gB|ce (3e(fe) dB|[GG,]d (3cdc (3BcB|(3ABA (3GAG F<D|
db bd gB|ce (3e(fe) dB|[GG,]d (3cdc (3BcB|1 (AF) [GG,]4:|2 (AF) [GG,]3 ud||
|:d>B [GG,]g gf|fe ec cA|(3(DF)A (3(DF)A (3(DF)A|(3dcB (3GAB (3GAB|
d>B [GG,]g gf|fe ec cA|(3(DF)A (3(DF)A (3(DF)A|1 (a/b/)a/f/ g3 ud:|2 (a/b/)a/f/ g4||

